src/assets/filled/MoneyForbidden.svg

<?xml version="1.0" encoding="UTF-8"?>
<svg width="24" height="24" viewBox="0 0 24 24" xmlns="http://www.w3.org/2000/svg">
 <path d="m1.7 20.24c0.01-0.01 0.01-0.02 0.01-0.02l5.5-5.5c0.01-0.01 0.02-0.01 0.03-0.02-0.63-0.44-1.4-0.7-2.24-0.7-2.21 0-4 1.79-4 4 0 0.75 0.21 1.46 0.58 2.06l0.12 0.18z"/>
 <path d="m8.3 15.75c-0.01 0.01-0.01 0.02-0.02 0.03l-5.5 5.5c-0.01 0.01-0.02 0.01-0.03 0.02 0.64 0.44 1.41 0.7 2.25 0.7 1.46 0 2.73-0.78 3.42-1.94 0.37-0.6 0.58-1.31 0.58-2.06 0-0.84-0.26-1.61-0.7-2.25z"/>
 <path d="m17 4h-10c-3 0-5 1.5-5 5v3.56c0 0.37 0.38 0.6 0.71 0.45 0.98-0.45 2.11-0.62 3.3-0.41 2.63 0.47 4.56 2.91 4.49 5.58-0.01 0.42-0.07 0.83-0.18 1.23-0.08 0.31 0.17 0.6 0.49 0.6h6.19c3 0 5-1.5 5-5v-6.01c0-3.5-2-5-5-5zm-5 10.5c-1.38 0-2.5-1.12-2.5-2.5s1.12-2.5 2.5-2.5 2.5 1.12 2.5 2.5-1.12 2.5-2.5 2.5zm7.25-0.5c0 0.41-0.34 0.75-0.75 0.75s-0.75-0.34-0.75-0.75v-4c0-0.41 0.34-0.75 0.75-0.75s0.75 0.34 0.75 0.75v4z"/>
</svg>

<svg width="24" height="24" viewBox="0 0 24 24"  xmlns="http://www.w3.org/2000/svg">
<path d="M1.7 20.24C1.71 20.23 1.71 20.22 1.71 20.22L7.21 14.72C7.22 14.71 7.23 14.71 7.24 14.7C6.61 14.26 5.84 14 5 14C2.79 14 1 15.79 1 18C1 18.75 1.21 19.46 1.58 20.06C1.62 20.12 1.66 20.18 1.7 20.24Z" />
<path d="M8.3 15.75C8.29 15.76 8.29 15.77 8.28 15.78L2.78 21.28C2.77 21.29 2.76 21.29 2.75 21.3C3.39 21.74 4.16 22 5 22C6.46 22 7.73 21.22 8.42 20.06C8.79 19.46 9 18.75 9 18C9 17.16 8.74 16.39 8.3 15.75Z" />
<path d="M17 4H7C4 4 2 5.5 2 9V12.56C2 12.93 2.38 13.16 2.71 13.01C3.69 12.56 4.82 12.39 6.01 12.6C8.64 13.07 10.57 15.51 10.5 18.18C10.49 18.6 10.43 19.01 10.32 19.41C10.24 19.72 10.49 20.01 10.81 20.01H17C20 20.01 22 18.51 22 15.01V9C22 5.5 20 4 17 4ZM12 14.5C10.62 14.5 9.5 13.38 9.5 12C9.5 10.62 10.62 9.5 12 9.5C13.38 9.5 14.5 10.62 14.5 12C14.5 13.38 13.38 14.5 12 14.5ZM19.25 14C19.25 14.41 18.91 14.75 18.5 14.75C18.09 14.75 17.75 14.41 17.75 14V10C17.75 9.59 18.09 9.25 18.5 9.25C18.91 9.25 19.25 9.59 19.25 10V14Z" />
</svg>
